X: 28954
T: Nancy Harling's
R: jig
M: 6/8
K: Dminor
|:A,|DCD FAc|~C3 ECA,|AGA ~c3|GAG EDC|
DCD FAc|~C3 ECA,|DAA AGA|FGE D2:|
|:C|FAc FAc|~d3 fBd|FAc FAc|~B3 dDE|
FAc FAc|dcd fBd|cfA BdD|EDE F2:|

